ix/brush-1_linear.svg

<svg viewBox="0 0 24 24" fill="none" xmlns="http://www.w3.org/2000/svg" height="1em" width="1em">
  <path d="M10.97 2h-2c-5 0-7 2-7 7v6c0 5 2 7 7 7h6c5 0 7-2 7-7v-2" stroke="#292D32" stroke-width="1.5" stroke-linecap="round" stroke-linejoin="round"/>
  <path d="M21.88 3.56c-1.23 3.07-4.32 7.25-6.9 9.32l-1.58 1.26c-.2.15-.4.27-.63.36 0-.15-.01-.3-.03-.46-.09-.67-.39-1.3-.93-1.83-.55-.55-1.21-.86-1.89-.95-.16-.01-.32-.02-.48-.01.09-.25.22-.48.39-.67L11.09 9c2.07-2.58 6.26-5.69 9.32-6.92.47-.18.93-.04 1.22.25.3.3.44.76.25 1.23Z" stroke="#292D32" stroke-width="1.5" stroke-linecap="round" stroke-linejoin="round"/>
  <path d="M12.78 14.49c0 .88-.34 1.72-.97 2.36-.49.49-1.15.83-1.94.93l-1.97.21a1.7 1.7 0 0 1-1.87-1.88l.21-1.97c.19-1.75 1.65-2.87 3.21-2.9.16-.01.32 0 .48.01.68.09 1.34.4 1.89.95.54.54.84 1.16.93 1.83.02.16.03.32.03.46Zm3.04-2.51c0-2.09-1.69-3.79-3.79-3.79" stroke="#292D32" stroke-width="1.5" stroke-linecap="round" stroke-linejoin="round"/>
</svg>

<svg viewBox="0 0 24 24" fill="none" xmlns="http://www.w3.org/2000/svg" height="1em" width="1em">
  <path d="M10.97 2H8.97C3.97 2 1.97 4 1.97 9V15C1.97 20 3.97 22 8.97 22H14.97C19.97 22 21.97 20 21.97 15V13" stroke="#292D32" stroke-width="1.5" stroke-linecap="round" stroke-linejoin="round"/>
  <path d="M21.88 3.55998C20.65 6.62998 17.56 10.81 14.98 12.88L13.4 14.14C13.2 14.29 13 14.41 12.77 14.5C12.77 14.35 12.76 14.2 12.74 14.04C12.65 13.37 12.35 12.74 11.81 12.21C11.26 11.66 10.6 11.35 9.92 11.26C9.76 11.25 9.6 11.24 9.44 11.25C9.53 11 9.66 10.77 9.83 10.58L11.09 8.99998C13.16 6.41998 17.35 3.30998 20.41 2.07998C20.88 1.89998 21.34 2.03998 21.63 2.32998C21.93 2.62998 22.07 3.08998 21.88 3.55998Z" stroke="#292D32" stroke-width="1.5" stroke-linecap="round" stroke-linejoin="round"/>
  <path d="M12.78 14.49C12.78 15.37 12.44 16.21 11.81 16.85C11.32 17.34 10.66 17.68 9.87 17.78L7.9 17.99C6.83 18.11 5.91 17.2 6.03 16.11L6.24 14.14C6.43 12.39 7.89 11.27 9.45 11.24C9.61 11.23 9.77 11.24 9.93 11.25C10.61 11.34 11.27 11.65 11.82 12.2C12.36 12.74 12.66 13.36 12.75 14.03C12.77 14.19 12.78 14.35 12.78 14.49Z" stroke="#292D32" stroke-width="1.5" stroke-linecap="round" stroke-linejoin="round"/>
  <path d="M15.82 11.9799C15.82 9.88994 14.13 8.18994 12.03 8.18994" stroke="#292D32" stroke-width="1.5" stroke-linecap="round" stroke-linejoin="round"/>
</svg>
